overrides/.icons/action/dash.svg

<?xml version="1.0" encoding="UTF-8" standalone="no"?>
<!-- Created with Inkscape (http://www.inkscape.org/) -->

<svg
   viewBox="0 0 24 24"
   version="1.1"
   id="svg1"
   xml:space="preserve"
   inkscape:version="1.3.2 (091e20e, 2023-11-25, custom)"
   sodipodi:docname="dash.svg"

   xmlns:inkscape="http://www.inkscape.org/namespaces/inkscape"
   xmlns:sodipodi="http://sodipodi.sourceforge.net/DTD/sodipodi-0.dtd"
   xmlns:xlink="http://www.w3.org/1999/xlink"
   xmlns="http://www.w3.org/2000/svg"
   xmlns:svg="http://www.w3.org/2000/svg"><sodipodi:namedview
     id="namedview1"
     pagecolor="#ffffff"
     bordercolor="#666666"
     borderopacity="1.0"
     inkscape:showpageshadow="2"
     inkscape:pageopacity="0.0"
     inkscape:pagecheckerboard="0"
     inkscape:deskcolor="#d1d1d1"
     inkscape:document-units="px"
     inkscape:zoom="5.6568543"
     inkscape:cx="-4.2426407"
     inkscape:cy="-5.2149125"
     inkscape:window-width="1360"
     inkscape:window-height="715"
     inkscape:window-x="-8"
     inkscape:window-y="-8"
     inkscape:window-maximized="1"
     inkscape:current-layer="layer1" /><defs
     id="defs1"><inkscape:path-effect
       effect="fillet_chamfer"
       id="path-effect4"
       is_visible="true"
       lpeversion="1"
       nodesatellites_param="F,0,0,1,0,0,0,1 @ F,0,1,1,0,27.077203,0,1 @ F,0,0,1,0,0,0,1 @ F,0,1,1,0,27.077203,0,1 @ F,0,0,1,0,0,0,1 @ F,0,0,1,0,27.077203,0,1 @ F,0,0,1,0,0,0,1 @ F,0,1,1,0,27.077203,0,1"
       radius="0"
       unit="px"
       method="auto"
       mode="F"
       chamfer_steps="1"
       flexible="false"
       use_knot_distance="true"
       apply_no_radius="true"
       apply_with_radius="true"
       only_selected="false"
       hide_knots="false" /><inkscape:path-effect
       effect="fillet_chamfer"
       id="path-effect3"
       is_visible="true"
       lpeversion="1"
       nodesatellites_param="F,0,0,1,0,0,0,1 @ F,0,0,1,0,0,0,1 @ F,0,0,1,0,0,0,1 @ F,0,0,1,0,0,0,1 @ F,0,0,1,0,0,0,1 @ F,0,0,1,0,0,0,1 @ F,0,0,1,0,0,0,1 @ F,0,0,1,0,0,0,1 @ F,0,0,1,0,0,0,1 @ F,0,0,1,0,0,0,1 @ F,0,0,1,0,0,0,1 @ F,0,0,1,0,0,0,1"
       radius="0"
       unit="px"
       method="auto"
       mode="F"
       chamfer_steps="1"
       flexible="false"
       use_knot_distance="true"
       apply_no_radius="true"
       apply_with_radius="true"
       only_selected="false"
       hide_knots="false" /><inkscape:path-effect
       effect="fillet_chamfer"
       id="path-effect2"
       is_visible="true"
       lpeversion="1"
       nodesatellites_param="F,0,0,1,0,0,0,1 @ F,0,1,1,0,14.213301,0,1 @ F,0,0,1,0,0,0,1 @ F,0,1,1,0,14.213301,0,1 @ F,0,0,1,0,0,0,1 @ F,0,0,1,0,14.213301,0,1 @ F,0,0,1,0,0,0,1 @ F,0,1,1,0,14.213301,0,1"
       radius="0"
       unit="px"
       method="auto"
       mode="F"
       chamfer_steps="1"
       flexible="false"
       use_knot_distance="true"
       apply_no_radius="true"
       apply_with_radius="true"
       only_selected="false"
       hide_knots="false" /><inkscape:path-effect
       effect="fillet_chamfer"
       id="path-effect1"
       is_visible="true"
       lpeversion="1"
       nodesatellites_param="F,0,0,1,0,0,0,1 @ F,0,0,1,0,0,0,1 @ F,0,0,1,0,0,0,1 @ F,0,0,1,0,0,0,1 @ F,0,0,1,0,0,0,1 @ F,0,0,1,0,0,0,1 @ F,0,0,1,0,0,0,1 @ F,0,0,1,0,0,0,1"
       radius="0"
       unit="px"
       method="auto"
       mode="F"
       chamfer_steps="1"
       flexible="false"
       use_knot_distance="true"
       apply_no_radius="true"
       apply_with_radius="true"
       only_selected="false"
       hide_knots="false" /><inkscape:path-effect
       effect="fillet_chamfer"
       id="path-effect4-4"
       is_visible="true"
       lpeversion="1"
       nodesatellites_param="F,0,0,1,0,0,0,1 @ F,0,1,1,0,27.077203,0,1 @ F,0,0,1,0,0,0,1 @ F,0,1,1,0,27.077203,0,1 @ F,0,0,1,0,0,0,1 @ F,0,0,1,0,27.077203,0,1 @ F,0,0,1,0,0,0,1 @ F,0,1,1,0,27.077203,0,1"
       radius="0"
       unit="px"
       method="auto"
       mode="F"
       chamfer_steps="1"
       flexible="false"
       use_knot_distance="true"
       apply_no_radius="true"
       apply_with_radius="true"
       only_selected="false"
       hide_knots="false" /><inkscape:path-effect
       effect="fillet_chamfer"
       id="path-effect4-9"
       is_visible="true"
       lpeversion="1"
       nodesatellites_param="F,0,0,1,0,0,0,1 @ F,0,1,1,0,27.077203,0,1 @ F,0,0,1,0,0,0,1 @ F,0,1,1,0,27.077203,0,1 @ F,0,0,1,0,0,0,1 @ F,0,0,1,0,27.077203,0,1 @ F,0,0,1,0,0,0,1 @ F,0,1,1,0,27.077203,0,1"
       radius="0"
       unit="px"
       method="auto"
       mode="F"
       chamfer_steps="1"
       flexible="false"
       use_knot_distance="true"
       apply_no_radius="true"
       apply_with_radius="true"
       only_selected="false"
       hide_knots="false" /><inkscape:path-effect
       effect="fillet_chamfer"
       id="path-effect4-5"
       is_visible="true"
       lpeversion="1"
       nodesatellites_param="F,0,0,1,0,0,0,1 @ F,0,1,1,0,27.077203,0,1 @ F,0,0,1,0,0,0,1 @ F,0,1,1,0,27.077203,0,1 @ F,0,0,1,0,0,0,1 @ F,0,0,1,0,27.077203,0,1 @ F,0,0,1,0,0,0,1 @ F,0,1,1,0,27.077203,0,1"
       radius="0"
       unit="px"
       method="auto"
       mode="F"
       chamfer_steps="1"
       flexible="false"
       use_knot_distance="true"
       apply_no_radius="true"
       apply_with_radius="true"
       only_selected="false"
       hide_knots="false" /><inkscape:path-effect
       effect="fillet_chamfer"
       id="path-effect4-5-8"
       is_visible="true"
       lpeversion="1"
       nodesatellites_param="F,0,0,1,0,0,0,1 @ F,0,1,1,0,27.077203,0,1 @ F,0,0,1,0,0,0,1 @ F,0,1,1,0,27.077203,0,1 @ F,0,0,1,0,0,0,1 @ F,0,0,1,0,27.077203,0,1 @ F,0,0,1,0,0,0,1 @ F,0,1,1,0,27.077203,0,1"
       radius="0"
       unit="px"
       method="auto"
       mode="F"
       chamfer_steps="1"
       flexible="false"
       use_knot_distance="true"
       apply_no_radius="true"
       apply_with_radius="true"
       only_selected="false"
       hide_knots="false" /><inkscape:path-effect
       effect="fillet_chamfer"
       id="path-effect4-5-8-6"
       is_visible="true"
       lpeversion="1"
       nodesatellites_param="F,0,0,1,0,0,0,1 @ F,0,1,1,0,27.077203,0,1 @ F,0,0,1,0,0,0,1 @ F,0,1,1,0,27.077203,0,1 @ F,0,0,1,0,0,0,1 @ F,0,0,1,0,27.077203,0,1 @ F,0,0,1,0,0,0,1 @ F,0,1,1,0,27.077203,0,1"
       radius="0"
       unit="px"
       method="auto"
       mode="F"
       chamfer_steps="1"
       flexible="false"
       use_knot_distance="true"
       apply_no_radius="true"
       apply_with_radius="true"
       only_selected="false"
       hide_knots="false" /></defs><g
     inkscape:label="Layer 1"
     inkscape:groupmode="layer"
     id="layer1"
     transform="translate(1.2236983,-0.06614588)"><image
       width="6.6145835"
       height="6.6145835"
       preserveAspectRatio="none"
       style="image-rendering:optimizeQuality"
       xlink:href="data:image/png;base64,iVBORw0KGgoAAAANSUhEUgAAABkAAAAZCAYAAADE6YVjAAAABHNCSVQICAgIfAhkiAAAAXZJREFU&#10;SInt1c1KVWEUxvG3c47mB07siMopcpCzkO7AWxARHGjiKBpYEE0bRjMbldSgHDbrDoJyFASCVyCk&#10;iJUaqNBEz6/BXtFG/Gp79iif6eZd/7WeZ73vTulSZQsD6Cwb8A7jZUIeo4mPuH6eM5UCnLWU0k5K&#10;aTSl9AgdBWqcLtTwAPvYxT1UW1W8ihvoRAfmcYjvmLkwCFcxiWU8DGAvXkc+33C/kHVR/A4WsCPT&#10;D8yign68xQH28Bw3jyt0JQ60oRt1DEfni/ga3ea1GRa14RpeRkZNfI4mGqjlQe2x/6N4gk/YdrpW&#10;cDvON/A+920rMus7Ok0NXdHZrZjkFVaPmWQD0zFJPezcly3CEqai6bOXIYqM4EV0RxbyXX8zeRPF&#10;f+IZGv8cfs7OMXzBXAB6ZaE3sRbg9kKAHKiCIdly9ITnB1jHOIq8HifCqrL361dYNNNSQEAmZHel&#10;iacXtugEyJ9X+AMGWw4ISPn/kwANoqtUyP+r33T2WdwzhxiHAAAAAElFTkSuQmCC&#10;"
       id="image1"
       x="174.22902"
       y="132.1955" /><g
       id="g1"
       transform="matrix(0.71154859,-0.71154859,0.71154859,0.71154859,-1.3577749,6.9171542)"
       style="stroke-width:0.993757"><path
         id="path3-6"
         style="stroke:none;stroke-width:0.0498074;paint-order:stroke markers fill"
         d="m 2.8556635,2.8339604 -1.21861,2.2728986 a 14.780972,14.780972 0 0 1 -0.353403,0.5777946 l 0.364044,0.6308478 a 12.218936,12.218936 0 0 0 4.806159,4.6600356 l 1.878473,1.008268 -1.846457,1.065768 a 12.218943,12.218943 0 0 0 -4.660036,4.80616 l -0.344398,0.641783 a 14.78098,14.78098 0 0 1 0.371068,0.566611 l 1.288184,2.234204 1.21861,-2.272899 a 14.78098,14.78098 0 0 1 5.63686,-5.813615 L 12.23036,11.923633 9.9574615,10.705023 A 14.780971,14.780971 0 0 1 4.1438475,5.0681631 Z" /><path
         id="path3-6-2"
         style="stroke:none;stroke-width:0.0498074;paint-order:stroke markers fill"
         d="M 7.9734727,0.80102856 6.4865242,3.5744206 A 18.035749,18.035749 0 0 1 6.0553017,4.2794458 l 0.4442067,0.7697608 a 14.909552,14.909552 0 0 0 5.8644766,5.6861784 l 2.292114,1.230289 -2.253048,1.30045 a 14.90956,14.90956 0 0 0 -5.6861773,5.864479 l -0.4202346,0.783104 a 18.035759,18.035759 0 0 1 0.4527773,0.691379 L 8.3212592,23.331263 9.808207,20.55787 a 18.035759,18.035759 0 0 1 6.878099,-7.093776 l 2.726175,-1.571842 -2.773392,-1.486949 A 18.035748,18.035748 0 0 1 9.5453157,3.5272038 Z" /><path
         id="path3-6-0-8"
         style="stroke:none;stroke-width:0.334597;paint-order:stroke markers fill"
         transform="matrix(0.09591972,-0.00148066,0.00148066,0.09591972,-3.7813833,-1.4003315)"
         d="m 100.86819,141.03352 -14.492313,8.0671 a 95.07007,95.07007 135 0 0 -36.82834,36.82834 l -8.067091,14.4923 -8.067091,-14.4923 A 62.502638,62.502638 37.474569 0 0 -6.0232149,155.69601 L -64.60693,141.03352 -6.0232157,126.37103 A 62.502621,62.502621 142.52543 0 0 33.413353,96.138091 l 8.067093,-14.492309 8.067093,14.492309 A 95.070017,95.070017 44.999997 0 0 86.37588,132.96643 Z"
         inkscape:original-d="M 100.86819,141.03352 62.71711,162.27019 41.480446,200.42126 20.243782,162.27019 -64.60693,141.03352 20.243782,119.79686 41.480446,81.645782 62.71711,119.79686 Z"
         inkscape:path-effect="#path-effect4-5-8-6"
         sodipodi:nodetypes="ccccccccc" /><path
         id="path3-8"
         style="fill:#800000;stroke-width:0.993757;paint-order:stroke markers fill"
         transform="matrix(0,0,0,0,-4.8188322,12.066146)"
         d="m 100.86819,141.03352 -14.492313,8.0671 a 95.07007,95.07007 135 0 0 -36.82834,36.82834 l -8.067091,14.4923 -8.067091,-14.4923 A 95.070076,95.070076 45.000001 0 0 -3.4149848,149.10062 l -14.4923102,-8.0671 14.4923075,-8.06709 A 95.070023,95.070023 135 0 0 33.413353,96.138091 l 8.067093,-14.492309 8.067093,14.492309 A 95.070017,95.070017 44.999997 0 0 86.37588,132.96643 Z"
         inkscape:original-d="M 100.86819,141.03352 62.71711,162.27019 41.480446,200.42126 20.243782,162.27019 -17.907295,141.03352 20.243782,119.79686 41.480446,81.645782 62.71711,119.79686 Z"
         inkscape:path-effect="#path-effect4-4" /></g></g></svg>

<?xml version="1.0" encoding="UTF-8"?>
<!-- Created with Inkscape (http://www.inkscape.org/) -->
<svg id="svg1" version="1.1" viewBox="0 0 24 24" xml:space="preserve" xmlns="http://www.w3.org/2000/svg" xmlns:xlink="http://www.w3.org/1999/xlink"><g id="layer1" transform="translate(1.2237 -.066146)"><image id="image1" x="174.23" y="132.2" width="6.6146" height="6.6146" image-rendering="optimizeQuality" preserveAspectRatio="none" xlink:href="data:image/png;base64,iVBORw0KGgoAAAANSUhEUgAAABkAAAAZCAYAAADE6YVjAAAABHNCSVQICAgIfAhkiAAAAXZJREFU
SInt1c1KVWEUxvG3c47mB07siMopcpCzkO7AWxARHGjiKBpYEE0bRjMbldSgHDbrDoJyFASCVyCk
iJUaqNBEz6/BXtFG/Gp79iif6eZd/7WeZ73vTulSZQsD6Cwb8A7jZUIeo4mPuH6eM5UCnLWU0k5K
aTSl9AgdBWqcLtTwAPvYxT1UW1W8ihvoRAfmcYjvmLkwCFcxiWU8DGAvXkc+33C/kHVR/A4WsCPT
D8yign68xQH28Bw3jyt0JQ60oRt1DEfni/ga3ea1GRa14RpeRkZNfI4mGqjlQe2x/6N4gk/YdrpW
cDvON/A+920rMus7Ok0NXdHZrZjkFVaPmWQD0zFJPezcly3CEqai6bOXIYqM4EV0RxbyXX8zeRPF
f+IZGv8cfs7OMXzBXAB6ZaE3sRbg9kKAHKiCIdly9ITnB1jHOIq8HifCqrL361dYNNNSQEAmZHel
iacXtugEyJ9X+AMGWw4ISPn/kwANoqtUyP+r33T2WdwzhxiHAAAAAElFTkSuQmCC
"/><g id="g1" transform="matrix(.71155 -.71155 .71155 .71155 -1.3578 6.9172)" stroke-width=".99376"><path id="path3-6" d="m2.8557 2.834-1.2186 2.2729a14.781 14.781 0 0 1-0.3534 0.57779l0.36404 0.63085a12.219 12.219 0 0 0 4.8062 4.66l1.8785 1.0083-1.8465 1.0658a12.219 12.219 0 0 0-4.66 4.8062l-0.3444 0.64178a14.781 14.781 0 0 1 0.37107 0.56661l1.2882 2.2342 1.2186-2.2729a14.781 14.781 0 0 1 5.6369-5.8136l2.2342-1.2882-2.2729-1.2186a14.781 14.781 0 0 1-5.8136-5.6369z" style="paint-order:stroke markers fill"/><path id="path3-6-2" d="m7.9735 0.80103-1.4869 2.7734a18.036 18.036 0 0 1-0.43122 0.70503l0.44421 0.76976a14.91 14.91 0 0 0 5.8645 5.6862l2.2921 1.2303-2.253 1.3004a14.91 14.91 0 0 0-5.6862 5.8645l-0.42023 0.7831a18.036 18.036 0 0 1 0.45278 0.69138l1.5718 2.7262 1.4869-2.7734a18.036 18.036 0 0 1 6.8781-7.0938l2.7262-1.5718-2.7734-1.4869a18.036 18.036 0 0 1-7.0938-6.8781z" style="paint-order:stroke markers fill"/><path id="path3-6-0-8" transform="matrix(.09592 -.0014807 .0014807 .09592 -3.7814 -1.4003)" d="m100.87 141.03-14.492 8.0671a95.07 95.07 135 0 0-36.828 36.828l-8.0671 14.492-8.0671-14.492a62.503 62.503 37.475 0 0-39.437-30.233l-58.584-14.662 58.584-14.662a62.503 62.503 142.53 0 0 39.437-30.233l8.0671-14.492 8.0671 14.492a95.07 95.07 45 0 0 36.828 36.828z" style="paint-order:stroke markers fill"/><path id="path3-8" transform="matrix(0 0 0 0 -4.8188 12.066)" d="m100.87 141.03-14.492 8.0671a95.07 95.07 135 0 0-36.828 36.828l-8.0671 14.492-8.0671-14.492a95.07 95.07 45 0 0-36.828-36.828l-14.492-8.0671 14.492-8.0671a95.07 95.07 135 0 0 36.828-36.828l8.0671-14.492 8.0671 14.492a95.07 95.07 45 0 0 36.828 36.828z" fill="#800000" stroke-width=".99376" style="paint-order:stroke markers fill"/></g></g></svg>
